brandFactory_export/2.Regular/Interes me gusta_2Regular.svg

<?xml version="1.0" encoding="UTF-8"?>
<svg width="24px" height="24px" viewBox="0 0 24 24" version="1.1" xmlns="http://www.w3.org/2000/svg" xmlns:xlink="http://www.w3.org/1999/xlink">
    <title>2.Regular/Interes me gusta_2Regular</title>
    <g id="Symbols" stroke="none" stroke-width="1" fill="none" fill-rule="evenodd">
        <g id="2.Regular/Interes-me-gusta_2Regular" fill="#5CB615" fill-rule="nonzero">
            <path d="M22.1411765,15.3058824 L22.1411765,4.80840336 C22.1411765,3.50420168 21.0386555,2.44201681 19.6806723,2.44201681 L3.94285714,2.44201681 C2.58487395,2.44201681 1.48235294,3.50420168 1.48235294,4.80840336 L1.48235294,15.3092437 C1.48235294,16.4554622 2.25210084,17.4067227 3.3512605,17.6252101 C3.69747899,17.692437 3.94621849,17.9848739 3.94621849,18.3277311 L3.94621849,20.8689076 C3.94621849,21.0504202 4.15798319,21.2319328 4.36302521,21.2319328 C4.45042017,21.2319328 4.58487395,21.2319328 4.74621849,21.0235294 L7.23361345,17.9445378 C7.37478992,17.7731092 7.58991597,17.6689076 7.81848739,17.6689076 L19.6840336,17.6689076 C21.0386555,17.6689076 22.1411765,16.610084 22.1411765,15.3058824 L22.1411765,15.3058824 Z M19.6806723,1.01008403 C21.8521008,1.01008403 23.6235294,2.71428571 23.6235294,4.80840336 L23.6235294,15.3092437 C23.6235294,17.4033613 21.8554622,19.1042017 19.6806723,19.1042017 L8.17815126,19.1042017 L5.92268908,21.8941176 C5.65378151,22.2403361 5.15630252,22.6638655 4.36302521,22.6638655 C3.33109244,22.6638655 2.46386555,21.8403361 2.46386555,20.8655462 L2.46386555,18.8588235 C0.988235294,18.3176471 0,16.9294118 0,15.3058824 L0,4.80840336 C0,2.71428571 1.77142857,1.01008403 3.94285714,1.01008403 L19.6806723,1.01008403 Z M14.6823529,8.58655462 C14.7394958,8.36134454 14.8369748,7.81344538 14.5747899,7.59495798 C14.4571429,7.49747899 14.2621849,7.43361345 14.0537815,7.42352941 L13.9831933,7.42016807 C13.7109244,7.42016807 13.4184874,7.50084034 13.1394958,7.65210084 C12.9647059,7.74621849 12.7831933,7.84705882 12.5882353,7.95798319 L12.5680672,7.97142857 L12.5445378,7.98151261 C12.3058824,8.1092437 12.0369748,8.17310924 11.7647059,8.17310924 C11.4857143,8.17310924 11.210084,8.10252101 10.9680672,7.96806723 C10.7428571,7.84033613 10.5647059,7.7394958 10.389916,7.6487395 C10.1109244,7.49747899 9.81848739,7.41680672 9.54285714,7.41680672 L9.47563025,7.42016807 C9.26722689,7.4302521 9.07226891,7.49411765 8.95462185,7.59159664 C8.68907563,7.81008403 8.78991597,8.36134454 8.84369748,8.58319328 C9.03865546,9.37310924 9.42521008,10.2067227 9.99327731,11.0605042 C10.4672269,11.7697479 10.8268908,12.2067227 11.4789916,12.8554622 C11.589916,12.9630252 11.7008403,13.0605042 11.7680672,13.1176471 C11.8285714,13.0705882 11.9193277,12.989916 12.0168067,12.8957983 L12.0201681,12.8890756 L12.0705882,12.8420168 C12.7092437,12.2 13.0689076,11.7697479 13.5394958,11.0638655 C14.1008403,10.210084 14.4907563,9.37647059 14.6823529,8.58655462 L14.6823529,8.58655462 Z M14.1310924,5.99159664 C14.6689076,6.01848739 15.1731092,6.2 15.5394958,6.50588235 C16.1747899,7.03361345 16.3831933,7.88739496 16.1277311,8.91932773 C15.892437,9.86722689 15.4420168,10.8487395 14.7798319,11.8403361 C14.2554622,12.6235294 13.8386555,13.1310924 13.1294118,13.8403361 L13.112605,13.8571429 C13.0420168,13.9277311 12.8,14.1663866 12.5915966,14.307563 C12.4134454,14.4319328 12.2117647,14.5159664 12.0134454,14.5596639 C11.9563025,14.5697479 11.8957983,14.5798319 11.8319328,14.5831933 L11.7042017,14.5831933 L11.697479,14.5831933 C11.6336134,14.5798319 11.5731092,14.5697479 11.5159664,14.5596639 C11.3142857,14.5159664 11.1159664,14.4319328 10.9378151,14.307563 C10.7327731,14.1630252 10.487395,13.9243697 10.4168067,13.8571429 C9.69747899,13.1411765 9.27731092,12.6302521 8.74957983,11.8369748 C8.0907563,10.8487395 7.63697479,9.86386555 7.40504202,8.91596639 C7.14957983,7.88403361 7.36134454,7.02689076 7.99327731,6.50252101 C8.35966387,6.19663866 8.8605042,6.01512605 9.40504202,5.98823529 C9.45546218,5.98823529 9.50252101,5.98487395 9.54957983,5.98487395 C10.0773109,5.98487395 10.6117647,6.12268908 11.1159664,6.39159664 C11.3042017,6.49243697 11.4957983,6.6 11.7042017,6.71764706 C11.7243697,6.73109244 11.7478992,6.73445378 11.7714286,6.73445378 C11.7983193,6.73445378 11.8184874,6.72773109 11.8386555,6.71764706 C12.0470588,6.59663866 12.2386555,6.48907563 12.4268908,6.38823529 C12.9310924,6.11932773 13.4689076,5.98151261 13.9932773,5.98151261 C14.0336134,5.98823529 14.0840336,5.99159664 14.1310924,5.99159664 L14.1310924,5.99159664 Z" id="Interes-me-gusta_2Regular"></path>
        </g>
    </g>
</svg>

<svg width="24" height="24" viewBox="0 0 24 24" xmlns="http://www.w3.org/2000/svg"><path d="M22.141 15.306V4.808c0-1.304-1.102-2.366-2.46-2.366H3.943c-1.358 0-2.46 1.062-2.46 2.366V15.31c0 1.146.77 2.098 1.868 2.316.346.067.595.36.595.703v2.54c0 .182.212.364.417.364.087 0 .222 0 .383-.208l2.488-3.08a.76.76 0 01.584-.275h11.866c1.355 0 2.457-1.059 2.457-2.363zM19.681 1.01c2.171 0 3.943 1.704 3.943 3.798V15.31c0 2.094-1.769 3.795-3.943 3.795H8.178l-2.255 2.79a1.93 1.93 0 01-1.56.77c-1.032 0-1.9-.824-1.9-1.798v-2.007A3.75 3.75 0 010 15.306V4.808C0 2.714 1.771 1.01 3.943 1.01H19.68zm-4.999 7.577c.057-.226.155-.774-.107-.992-.118-.098-.313-.161-.521-.171l-.07-.004c-.273 0-.566.08-.845.232-.174.094-.356.195-.55.306l-.02.013-.024.01a1.652 1.652 0 01-.78.192c-.28 0-.555-.07-.797-.205a18.113 18.113 0 00-.578-.32 1.798 1.798 0 00-.847-.231l-.067.003c-.209.01-.404.074-.521.172-.266.218-.165.77-.111.991.195.79.581 1.624 1.15 2.478.473.709.833 1.146 1.485 1.794.11.108.222.206.29.263.06-.047.15-.128.248-.222l.003-.007.05-.047c.64-.642.999-1.072 1.47-1.778.56-.854.95-1.688 1.142-2.477zm-.55-2.595c.537.026 1.041.208 1.407.514.636.528.844 1.381.589 2.413-.236.948-.686 1.93-1.348 2.921a11.85 11.85 0 01-1.65 2l-.017.017c-.071.07-.313.31-.521.45-.179.125-.38.209-.579.253-.057.01-.117.02-.181.023h-.135a1.483 1.483 0 01-.181-.023 1.606 1.606 0 01-.578-.252c-.205-.145-.45-.384-.521-.45a11.643 11.643 0 01-1.667-2.021c-.66-.988-1.113-1.973-1.345-2.921-.255-1.032-.044-1.89.588-2.413.367-.306.868-.488 1.412-.515.05 0 .098-.003.145-.003.527 0 1.062.138 1.566.407.188.1.38.208.588.326.02.013.044.016.067.016a.142.142 0 00.068-.016c.208-.121.4-.229.588-.33a3.338 3.338 0 011.566-.406c.04.006.091.01.138.01z" fill="#5CB615" fill-rule="nonzero"/></svg>
